X:223
T:Irish Washerwoman. VWMLa.223, The
%%VWML:Anon2-3049-p142-0
F:http://www.vwml.org/record/Anon2/3049/p142
S:Anon. MS, late 18thC, Vaughan Williams Mem. Library
O:England;Yorkshire
Z:vmp/efdss.Simon Wilson. Reviewed PJH 2008.
M:6/8
L:1/8
Q:3/8=120
K:G
d/c/|BGG DGG|BGB dcB|cAA DAA|cAc edc|\
BGG DGG|BGB dcB|(d/c/B).c Adc|BGG G2:|
|:(g/a/)|bgg dgg|bgb bag|afd Adf|fdf agf|\
egg dgg|cgg Bgg|(d/c/B).c Adc|BGG G2:|
T:Lendall. VWMLa.224, The
R:Country-dance
S:Anon. MS, late 18thC, Vaughan Williams Mem. Library
O:England;Yorkshire
Z:vmp/efdss.Simon Wilson. Reviewed PJH 2008.
M:2/4
L:1/8
Q:1/4=120
K:D
a|a>baf|d>edA|FAAd|FAAd|\
a>baf|d>edA|FAde|fdd:|
|:.aa-a.f|bagf|.gg-g.e|agfe|\
dddA|BAGF|DdAF|D/D/DD2:|
|:FA !turn!AG/A/|BBB2|EG !turn!GF/G/|AAA2|\
df!turn! fe/f/|gg gb|a>baf|d2d2:|
